X:54
T:Adam Hickey
R:jig
C:Paul S. Cranford
O:20th Century Cape Breton
D:The Lighthouse, Cranford Publications
B:The Lighthouse Collection, ISBN 0-9691181-5-5
N:Contacts ...
N:..... Cranford Publications <http://www.cranfordpub.com>
Z:This abc transcription is for personal use only,
Z:provided this notice remains attached.
Z:Used by permission of the composer and publisher.
Z:Paul Stewart Cranford 
Q:300
L:1/8
M:6/8
K:F
AG|F2 C DFC|Ddc Aag|fdc dfc|AGF GAG|!
=462 C DFC|Ddc Aag|fdc dfc|AFF F:|!
|:fg|a2 f a2 f|gec ceg|fdc dfc|[1AGF Gfg|!
a2 f a2 f|gec ceg|fdc dfc|AFF F:|!
[2 AGF GAG|F2 C DFC|Ddc Aag|fdc dfc|AFF F|]!
